X: 191957
T: Shanahan's Rambles
S: "The Roche Collection of Traditional Irish Music" [III/28/82]
L: 1/8
M: 6/8
R: jig
K: G
G3 BAG | dBG BAG | DGG BAG | EAA ABA |
G3 BAG | dBG BAG | DGG AB/c/A | BGG G3 :|
d2g fdc | B2d cAG | DGG BAG | FAA ABc |
d2g fdc | B2d cAG | DGG AB/c/A | BGG G3 :|
